X: 30402
T: Old Sport, The
R: reel
M: 4/4
K: Gmajor
BA|:G2DG EGDG|BdcB AcBA|G2DG EGDG|BcAB GcBA|
G2DG EGDG|BdcBA3f|gfed edcB|1 AGFAG2BA:|2 AGFAG2Bc||
|:dedf gdBG|FGABc2dc|Bdgd eaag|fgefd2df|
g3d e3c|d3B c2Bc|dedc BdcA|1 G3F G2Bc:|2 G3F G2||

